src/assets/svg_icons/instagram.svg

<?xml version="1.0" encoding="utf-8"?><!-- Uploaded to: SVG Repo, www.svgrepo.com, Generator: SVG Repo Mixer Tools -->
<svg width="800px" height="800px" viewBox="0 0 24 24" fill="none" xmlns="http://www.w3.org/2000/svg">
<path fill-rule="evenodd" clip-rule="evenodd" d="M12 2C9.284 2 8.944 2.01133 7.87733 2.06C6.81267 2.10867 6.08533 2.278 5.44933 2.52533C4.78267 2.776 4.178 3.16933 3.678 3.67867C3.16948 4.17809 2.77591 4.78233 2.52467 5.44933C2.27867 6.08533 2.10867 6.81333 2.06 7.878C2.012 8.944 2 9.28333 2 12C2 14.7167 2.01133 15.056 2.06 16.1227C2.10867 17.1873 2.278 17.9147 2.52533 18.5507C2.776 19.2173 3.16933 19.822 3.67867 20.322C4.1781 20.8305 4.78234 21.2241 5.44933 21.4753C6.08533 21.722 6.81267 21.8913 7.87733 21.94C8.944 21.9887 9.284 22 12 22C14.716 22 15.056 21.9887 16.1227 21.94C17.1873 21.8913 17.9147 21.722 18.5507 21.4747C19.2173 21.224 19.822 20.8307 20.322 20.3213C20.8305 19.8219 21.2241 19.2177 21.4753 18.5507C21.722 17.9147 21.8913 17.1873 21.94 16.1227C21.9887 15.056 22 14.716 22 12C22 9.284 21.9887 8.944 21.94 7.87733C21.8913 6.81267 21.722 6.08533 21.4747 5.44933C21.2236 4.78204 20.83 4.17755 20.3213 3.678C19.8219 3.16948 19.2177 2.77591 18.5507 2.52467C17.9147 2.27867 17.1867 2.10867 16.122 2.06C15.056 2.012 14.7167 2 12 2ZM12 3.802C14.67 3.802 14.9867 3.812 16.0413 3.86C17.016 3.90467 17.5453 4.06667 17.898 4.20467C18.3647 4.38533 18.698 4.60267 19.048 4.952C19.398 5.302 19.6147 5.63533 19.7953 6.102C19.9327 6.45467 20.0953 6.984 20.14 7.95867C20.188 9.01333 20.198 9.33 20.198 12C20.198 14.67 20.188 14.9867 20.14 16.0413C20.0953 17.016 19.9333 17.5453 19.7953 17.898C19.6353 18.3324 19.3799 18.7253 19.048 19.048C18.7254 19.38 18.3324 19.6354 17.898 19.7953C17.5453 19.9327 17.016 20.0953 16.0413 20.14C14.9867 20.188 14.6707 20.198 12 20.198C9.32933 20.198 9.01333 20.188 7.95867 20.14C6.984 20.0953 6.45467 19.9333 6.102 19.7953C5.66764 19.6353 5.27467 19.3799 4.952 19.048C4.62012 18.7253 4.36475 18.3323 4.20467 17.898C4.06733 17.5453 3.90467 17.016 3.86 16.0413C3.812 14.9867 3.802 14.67 3.802 12C3.802 9.33 3.812 9.01333 3.86 7.95867C3.90467 6.984 4.06667 6.45467 4.20467 6.102C4.38533 5.63533 4.60267 5.302 4.952 4.952C5.27463 4.62003 5.66761 4.36465 6.102 4.20467C6.45467 4.06733 6.984 3.90467 7.95867 3.86C9.01333 3.812 9.33 3.802 12 3.802Z" fill="#000000"/>
<path fill-rule="evenodd" clip-rule="evenodd" d="M12 15.3367C11.5618 15.3367 11.128 15.2504 10.7231 15.0827C10.3183 14.915 9.95047 14.6692 9.64064 14.3594C9.3308 14.0495 9.08502 13.6817 8.91734 13.2769C8.74965 12.8721 8.66335 12.4382 8.66335 12C8.66335 11.5618 8.74965 11.1279 8.91734 10.7231C9.08502 10.3183 9.3308 9.95046 9.64064 9.64062C9.95047 9.33078 10.3183 9.08501 10.7231 8.91732C11.128 8.74964 11.5618 8.66333 12 8.66333C12.885 8.66333 13.7336 9.01487 14.3594 9.64062C14.9851 10.2664 15.3367 11.1151 15.3367 12C15.3367 12.8849 14.9851 13.7336 14.3594 14.3594C13.7336 14.9851 12.885 15.3367 12 15.3367ZM12 6.86C10.6368 6.86 9.32942 7.40153 8.36549 8.36547C7.40155 9.32941 6.86002 10.6368 6.86002 12C6.86002 13.3632 7.40155 14.6706 8.36549 15.6345C9.32942 16.5985 10.6368 17.14 12 17.14C13.3632 17.14 14.6706 16.5985 15.6345 15.6345C16.5985 14.6706 17.14 13.3632 17.14 12C17.14 10.6368 16.5985 9.32941 15.6345 8.36547C14.6706 7.40153 13.3632 6.86 12 6.86ZM18.6353 6.76667C18.6353 7.0889 18.5073 7.39794 18.2795 7.6258C18.0516 7.85366 17.7426 7.98167 17.4204 7.98167C17.0981 7.98167 16.7891 7.85366 16.5612 7.6258C16.3334 7.39794 16.2053 7.0889 16.2053 6.76667C16.2053 6.44443 16.3334 6.13539 16.5612 5.90753C16.7891 5.67968 17.0981 5.55167 17.4204 5.55167C17.7426 5.55167 18.0516 5.67968 18.2795 5.90753C18.5073 6.13539 18.6353 6.44443 18.6353 6.76667Z" fill="#000000"/>
</svg>

<svg
  xmlns="http://www.w3.org/2000/svg"
  width="800"
  height="800"
  viewBox="0 0 24 24"
  fill="#000"
  fill-rule="evenodd"
  xmlns:v="https://vecta.io/nano"
>
  <path
    d="M12 2l-4.123.06c-1.065.049-1.792.218-2.428.465a4.9 4.9 0 0 0-1.771 1.153c-.509.499-.902 1.104-1.153 1.771-.246.636-.416 1.364-.465 2.429L2 12l.06 4.123c.049 1.065.218 1.792.465 2.428a4.9 4.9 0 0 0 1.153 1.771c.499.509 1.104.902 1.771 1.153.636.247 1.363.416 2.428.465L12 22l4.123-.06c1.065-.049 1.792-.218 2.428-.465a4.9 4.9 0 0 0 1.771-1.153c.509-.499.902-1.104 1.153-1.771.247-.636.416-1.363.465-2.428L22 12l-.06-4.123c-.049-1.065-.218-1.792-.465-2.428-.251-.667-.645-1.272-1.153-1.771-.499-.509-1.104-.902-1.771-1.153-.636-.246-1.364-.416-2.429-.465L12 2zm0 1.802l4.041.058c.975.045 1.504.207 1.857.345a3.1 3.1 0 0 1 1.15.747 3.07 3.07 0 0 1 .747 1.15c.137.353.3.882.345 1.857L20.198 12l-.058 4.041c-.045.975-.207 1.504-.345 1.857a3.1 3.1 0 0 1-.747 1.15 3.1 3.1 0 0 1-1.15.747c-.353.137-.882.3-1.857.345L12 20.198c-2.671 0-2.987-.01-4.041-.058-.975-.045-1.504-.207-1.857-.345a3.1 3.1 0 0 1-1.15-.747 3.1 3.1 0 0 1-.747-1.15c-.137-.353-.3-.882-.345-1.857L3.802 12l.058-4.041c.045-.975.207-1.504.345-1.857a3.1 3.1 0 0 1 .747-1.15 3.1 3.1 0 0 1 1.15-.747c.353-.137.882-.3 1.857-.345L12 3.802zm0 11.535c-.438 0-.872-.086-1.277-.254a3.34 3.34 0 0 1-1.806-1.806c-.168-.405-.254-.839-.254-1.277s.086-.872.254-1.277.413-.773.723-1.082.678-.556 1.082-.723a3.35 3.35 0 0 1 1.277-.254c.885 0 1.734.352 2.359.977s.977 1.474.977 2.359-.352 1.734-.977 2.359-1.474.977-2.359.977zm0-8.477a5.14 5.14 0 1 0 0 10.28 5.14 5.14 0 1 0 0-10.28zm6.635-.093c0 .322-.128.631-.356.859s-.537.356-.859.356-.631-.128-.859-.356-.356-.537-.356-.859.128-.631.356-.859.537-.356.859-.356.631.128.859.356.356.537.356.859z"
  />
</svg>
